; generated by PrusaSlicer 2.4.2+x64 on 2022-07-06 at 17:21:13 UTC

; 

; external perimeters extrusion width = 0.45mm
; perimeters extrusion width = 0.45mm
; infill extrusion width = 0.45mm
; solid infill extrusion width = 0.45mm
; top infill extrusion width = 0.40mm
; first layer extrusion width = 0.42mm

M73 P0 R24
M73 Q0 S24
M201 X1000 Y1000 Z200 E5000 ; sets maximum accelerations, mm/sec^2
M203 X200 Y200 Z12 E120 ; sets maximum feedrates, mm / sec
M204 P1250 R1250 T1250 ; sets acceleration (P, T) and retract acceleration (R), mm/sec^2
M205 X8.00 Y8.00 Z0.40 E4.50 ; sets the jerk limits, mm/sec
M205 S0 T0 ; sets the minimum extruding and travel feed rate, mm/sec
M107
;TYPE:Custom
M862.3 P "MK3" ; printer model check
M862.1 P0.4 ; nozzle diameter check
M115 U3.10.1 ; tell printer latest fw version
G90 ; use absolute coordinates
M83 ; extruder relative mode
M104 S215 ; set extruder temp
M140 S60 ; set bed temp
M190 S60 ; wait for bed temp
M109 S215 ; wait for extruder temp
G28 W ; home all without mesh bed level
G80 ; mesh bed leveling
G1 Z0.2 F720
G1 Y-3 F1000 ; go outside print area
G92 E0
G1 X60 E9 F1000 ; intro line
G1 X100 E12.5 F1000 ; intro line
G92 E0
M221 S95

; Don't change E values below. Excessive value can damage the printer.

M907 E538 ; set extruder motor current
G21 ; set units to millimeters
G90 ; use absolute coordinates
M83 ; use relative distances for extrusion
M900 K0.05 ; Filament gcode LA 1.5
M900 K30 ; Filament gcode LA 1.0
M107
;LAYER_CHANGE
;Z:0.2
;HEIGHT:0.2
;BEFORE_LAYER_CHANGE
G92 E0.0
;0.2


G1 E-.8 F2100
G1 Z.4 F720
;AFTER_LAYER_CHANGE
;0.2
G1 X71.172 Y94.682 F10800
G1 Z.2 F720
G1 E.8 F2100
M204 S800
;TYPE:Skirt/Brim
;WIDTH:0.42
G1 F1200
G1 X72.561 Y93.65 E.05426
G1 X74.277 Y92.657 E.06216
G1 X75.627 Y92.056 E.04636
G1 X77.27 Y91.512 E.05426
G1 X90.244 Y87.669 E.42425
G1 X91.725 Y87.379 E.04732
G1 X130.994 Y84.527 E1.2345
G1 X132.115 Y84.522 E.03515
G1 X133.359 Y84.642 E.03918
G1 X134.558 Y84.892 E.03841
G1 X135.75 Y85.555 E.04278
G1 X136.423 Y87.261 E.05751
G1 X136.383 Y88.554 E.04056
G1 X136.204 Y89.835 E.04056
G1 X135.888 Y91.09 E.04056
G1 X135.524 Y92.104 E.0338
G1 X128.799 Y109.846 E.59489
G1 X128.007 Y111.347 E.05323
G1 X127.189 Y112.533 E.04516
G1 X126.424 Y113.435 E.03708
G1 X125.281 Y114.18 E.04278
G1 X124.586 Y114.276 E.022
G1 X93.729 Y113.958 E.96755
G1 X80.251 Y113.588 E.42274
G1 X78.341 Y113.379 E.06024
G1 X76.422 Y112.968 E.06153
G1 X74.556 Y112.361 E.06153
G1 X72.763 Y111.563 E.06153
G1 X71.062 Y110.585 E.06153
M73 Q1 S24
G1 X69.472 Y109.435 E.06153
G1 X68.009 Y108.127 E.06153
M73 P1 R24
G1 X66.689 Y106.674 E.06153
G1 X66.042 Y105.841 E.03308
G1 X65.616 Y103.876 E.06304
G1 X66.247 Y101.677 E.07173
G1 X67.035 Y99.858 E.06216
G1 X67.898 Y98.359 E.05426
G1 X68.759 Y97.156 E.04636
G1 X70.077 Y95.675 E.06216
G1 X71.127 Y94.722 E.04447
M204 S1000
; printing object RH FISH.stl id:0 copy 0
;WIPE_START
G1 F8640
G1 X72.561 Y93.65 E-.41337
G1 X73.86 Y92.898 E-.34663
;WIPE_END
G1 E-.04 F2100
G1 Z.6 F720
G1 X105.722 Y99.517 F10800
G1 Z.2 F720
G1 E.8 F2100
M204 S800
;TYPE:Perimeter
G1 F1200
G1 X105.172 Y99.536 E.01725
G1 X104.643 Y99.608 E.01673
G1 X102.699 Y99.996 E.06217
G1 X101.228 Y100.39 E.04774
G1 X100.871 Y98.442 E.0621
G1 X100.756 Y96.946 E.04705
G1 X100.797 Y95.446 E.04705
G1 X100.993 Y93.958 E.04705
G1 X101.342 Y92.499 E.04705
G1 X101.713 Y91.449 E.03491
G1 X102.419 Y91.28 E.02276
G1 X103.521 Y91.14 E.03484
G1 X104.632 Y91.12 E.03484
G1 X105.738 Y91.221 E.03484
G1 X105.978 Y91.269 E.00767
G1 X105.77 Y91.851 E.01937
G1 X105.4 Y93.376 E.04919
G1 X105.192 Y94.931 E.04919
G1 X105.15 Y96.499 E.0492
G1 X105.274 Y98.069 E.04938
G1 X105.39 Y98.627 E.01786
G1 X105.556 Y99.172 E.01787
G1 X105.696 Y99.463 E.01013
M204 S1000
;WIPE_START
G1 F8640
G1 X105.172 Y99.536 E-.12212
G1 X104.643 Y99.608 E-.12323
G1 X102.699 Y99.996 E-.45783
G1 X102.461 Y100.06 E-.05683
;WIPE_END
G1 E-.04 F2100
G1 Z.6 F720
G1 X109.302 Y93.842 F10800
G1 Z.2 F720
G1 E.8 F2100
M204 S800
G1 F1200
G1 X109.049 Y94.578 E.02438
G1 X108.852 Y95.41 E.02682
G1 X108.736 Y96.258 E.02682
G1 X108.702 Y97.117 E.02696
G1 X108.769 Y98.009 E.02805
G1 X108.919 Y98.511 E.01642
G1 X109.088 Y98.83 E.01132
G1 X108.985 Y98.831 E.00321
G1 X108.394 Y98.931 E.01879
G1 X108.066 Y99.068 E.01114
G1 X108.097 Y98.779 E.0091
G1 X107.981 Y97.613 E.03673
G1 X107.965 Y96.913 E.02196
G1 X108.019 Y96.223 E.02172
G1 X108.144 Y95.541 E.02172
G1 X108.336 Y94.876 E.02172
G1 X108.596 Y94.234 E.02172
G1 X108.783 Y93.879 E.01257
G1 X108.855 Y93.859 E.00236
G1 X109.242 Y93.836 E.01216
M204 S1000
;WIPE_START
G1 F8640
G1 X109.049 Y94.578 E-.17707
G1 X108.852 Y95.41 E-.19751
G1 X108.736 Y96.258 E-.19752
G1 X108.704 Y97.071 E-.1879
;WIPE_END
G1 E-.04 F2100
G1 Z.6 F720
G1 X116.368 Y99.779 F10800
G1 Z.2 F720
G1 E.8 F2100
M204 S800
G1 F1200
G1 X116.293 Y101.573 E.05629
G1 X116.386 Y102.963 E.04368
G1 X116.628 Y104.335 E.04368
G1 X117.018 Y105.673 E.04368
G1 X117.355 Y106.488 E.02765
G1 X117.074 Y106.745 E.01195
G1 X116.859 Y106.893 E.00819
G1 X116.629 Y107.018 E.00819
G1 X116.388 Y107.117 E.00819
G1 X116.137 Y107.19 E.00819
G1 X115.88 Y107.236 E.00819
G1 X115.62 Y107.255 E.00819
G1 X115.359 Y107.246 E.00819
G1 X115.1 Y107.209 E.00819
G1 X114.847 Y107.145 E.00819
G1 X114.602 Y107.055 E.00819
G1 X114.368 Y106.939 E.00819
G1 X114.052 Y106.722 E.01202
G1 X113.707 Y106.007 E.02491
G1 X113.38 Y105.127 E.02942
G1 X113.136 Y104.221 E.02942
G1 X112.977 Y103.297 E.02942
G1 X112.819 Y101.256 E.06417
G1 X111.297 Y101.866 E.0514
G1 X110.785 Y102.026 E.01682
G1 X109.562 Y102.304 E.03931
G1 X109.703 Y103.917 E.05077
G1 X109.885 Y104.873 E.0305
G1 X110.162 Y105.805 E.0305
G1 X110.533 Y106.705 E.0305
G1 X111.011 Y107.588 E.0315
G1 X110.758 Y107.653 E.00817
G1 X110.31 Y107.701 E.01414
G1 X110.034 Y107.309 E.01504
G1 X109.62 Y106.584 E.02617
G1 X109.277 Y105.823 E.02617
G1 X109.008 Y105.033 E.02617
G1 X108.815 Y104.221 E.02617
G1 X108.58 Y102.53 E.05352
G1 X107.316 Y102.783 E.04041
G1 X105.984 Y102.908 E.04195
G1 X106.713 Y106.337 E.10991
G1 X107.461 Y108.881 E.08314
G1 X108.11 Y110.594 E.05743
G1 X107.668 Y110.716 E.01437
G1 X107.08 Y110.811 E.01868
G1 X106.485 Y110.842 E.01868
G1 X105.89 Y110.808 E.01868
G1 X105.303 Y110.71 E.01868
G1 X104.729 Y110.549 E.01868
G1 X104.176 Y110.326 E.01868
G1 X103.855 Y110.154 E.01144
G1 X103.129 Y108.488 E.057
G1 X102.496 Y106.535 E.06437
G1 X101.848 Y103.58 E.09483
G1 X100.767 Y104.019 E.03657
G1 X100.393 Y104.106 E.01206
G1 X100.008 Y104.115 E.01206
G1 X98.88 Y103.964 E.03568
G1 X98.89 Y105.69 E.05411
G1 X98.977 Y106.544 E.02692
G1 X99.144 Y107.386 E.02692
G1 X99.391 Y108.208 E.02692
G1 X99.686 Y108.935 E.02459
G1 X99.28 Y108.998 E.01288
G1 X98.98 Y109.006 E.00941
G1 X98.681 Y108.984 E.00941
G1 X98.385 Y108.932 E.00941
G1 X98.043 Y108.829 E.0112
G1 X97.809 Y108.404 E.01523
G1 X97.516 Y107.733 E.02294
G1 X97.287 Y107.038 E.02294
G1 X97.123 Y106.325 E.02294
G1 X97.026 Y105.6 E.02294
G1 X96.967 Y104.117 E.04654
G1 X100.107 Y103.746 E.09916
G1 X103.336 Y103.027 E.10372
G1 X116.31 Y99.794 E.41922
M204 S1000
;WIPE_START
G1 F8640
G1 X116.293 Y101.573 E-.41082
G1 X116.386 Y102.963 E-.32171
G1 X116.407 Y103.08 E-.02747
;WIPE_END
G1 E-.04 F2100
G1 Z.6 F720
G1 X122.563 Y97.851 F10800
G1 Z.2 F720
G1 E.8 F2100
M204 S800
;TYPE:External perimeter
G1 F1200
G1 X121.226 Y98.161 E.04303
G1 X120.264 Y98.335 E.03065
G1 X119.325 Y98.553 E.03022
G1 X117.457 Y99.112 E.06114
G1 X116.981 Y99.238 E.01545
G1 X103.25 Y102.66 E.4437
G1 X100.044 Y103.374 E.10297
G1 X96.767 Y103.761 E.10346
G1 X93.468 Y103.812 E.10346
G1 X90.179 Y103.527 E.10351
G1 X89.695 Y103.428 E.01549
G1 X89.228 Y103.303 E.01516
G1 X88.788 Y103.137 E.01473
G1 X88.362 Y103.034 E.01377
G1 X86.957 Y102.885 E.04427
G1 X86.03 Y102.639 E.03008
G1 X83.777 Y101.968 E.07372
G1 X80.727 Y100.709 E.10346
G1 X78.621 Y99.576 E.07497
G1 X79.011 Y98.782 E.02774
G1 X81.099 Y99.714 E.07169
G1 X84.091 Y100.713 E.0989
G1 X87.165 Y101.417 E.0989
G1 X90.294 Y101.819 E.0989
G1 X93.447 Y101.915 E.0989
G1 X96.594 Y101.704 E.0989
G1 X99.706 Y101.188 E.0989
G1 X102.785 Y100.364 E.09993
G1 X104.706 Y99.98 E.06142
G1 X105.204 Y99.912 E.01577
G1 X106.179 Y99.879 E.03059
G1 X108.04 Y99.487 E.05962
G1 X108.5 Y99.295 E.01563
G1 X109.018 Y99.208 E.01649
G1 X109.509 Y99.204 E.01538
G1 X109.955 Y99.113 E.01428
G1 X110.889 Y98.836 E.03054
G1 X112.308 Y98.554 E.04537
G1 X112.771 Y98.379 E.01552
G1 X113.279 Y98.273 E.01627
G1 X122.397 Y96.994 E.28869
G1 X122.551 Y97.792 E.0255
M204 S1000
G1 X122.818 Y98.16 F10800
;WIPE_START
G1 F8640
G1 X121.226 Y98.161 E-.31772
G1 X120.264 Y98.335 E-.22571
G1 X119.35 Y98.547 E-.21657
;WIPE_END
G1 E-.04 F2100
G1 Z.6 F720
G1 X124.621 Y96.417 F10800
G1 Z.2 F720
G1 E.8 F2100
M204 S800
;TYPE:Perimeter
G1 F1200
G1 X124.509 Y97.445 E.03242
G1 X124.577 Y98.066 E.01957
M73 Q2 S24
G1 X125.329 Y99.166 E.04179
G1 X125.847 Y100.133 E.0344
G1 X126.257 Y101.151 E.0344
G1 X126.555 Y102.207 E.0344
G1 X126.733 Y103.271 E.03383
M73 P2 R24
G1 X126.798 Y104.385 E.03499
G1 X126.742 Y105.48 E.03439
G1 X126.568 Y106.563 E.0344
G1 X126.277 Y107.621 E.0344
G1 X125.873 Y108.641 E.0344
G1 X125.361 Y109.611 E.0344
G1 X124.746 Y110.521 E.0344
G1 X124.582 Y110.715 E.00798
G1 X124.344 Y110.46 E.01094
G1 X123.627 Y109.506 E.03739
G1 X123.016 Y108.482 E.03739
G1 X122.517 Y107.399 E.03739
G1 X122.135 Y106.27 E.03739
G1 X121.876 Y105.106 E.03739
G1 X121.741 Y103.921 E.03739
G1 X121.732 Y102.728 E.03739
G1 X121.85 Y101.542 E.03739
G1 X122.094 Y100.373 E.03741
G1 X122.793 Y98.185 E.07202
G1 X123.002 Y98.137 E.00674
G1 X122.699 Y96.571 E.04999
G1 X113.214 Y97.901 E.30031
G1 X112.586 Y98.046 E.02022
G1 X112.657 Y97.722 E.0104
G1 X112.693 Y97 E.02266
G1 X112.777 Y96.009 E.03118
G1 X112.948 Y95.053 E.03046
G1 X113.208 Y94.118 E.03044
G1 X113.556 Y93.211 E.03044
G1 X113.908 Y92.503 E.02482
G1 X114.13 Y92.359 E.00828
G1 X114.522 Y92.163 E.01374
G1 X114.933 Y92.009 E.01374
G1 X115.357 Y91.901 E.01374
G1 X115.791 Y91.839 E.01374
G1 X116.23 Y91.824 E.01375
G1 X116.667 Y91.857 E.01374
G1 X116.73 Y91.868 E.00203
G1 X116.419 Y92.961 E.03563
G1 X116.241 Y93.978 E.03235
G1 X116.162 Y95.006 E.03236
G1 X116.205 Y97.296 E.07179
G1 X117.801 Y96.428 E.05696
G1 X118.305 Y96.208 E.01724
G1 X118.838 Y95.929 E.01885
G1 X119.333 Y95.728 E.01675
G1 X119.845 Y95.576 E.01675
G1 X120.37 Y95.475 E.01675
G1 X120.902 Y95.426 E.01675
G1 X121.436 Y95.429 E.01675
G1 X121.967 Y95.484 E.01675
G1 X123.321 Y95.759 E.04333
G1 X123.621 Y94.049 E.05445
G1 X123.866 Y93.198 E.02775
G1 X124.201 Y92.379 E.02775
G1 X124.623 Y91.601 E.02775
G1 X125.125 Y90.872 E.02775
G1 X125.703 Y90.202 E.02775
G1 X126.349 Y89.598 E.02775
G1 X127.057 Y89.066 E.02775
G1 X127.818 Y88.614 E.02775
G1 X128.622 Y88.246 E.02775
G1 X129.462 Y87.966 E.02775
G1 X130.327 Y87.778 E.02775
G1 X131.207 Y87.685 E.02775
G1 X132.092 Y87.686 E.02775
G1 X132.972 Y87.782 E.02775
G1 X133.247 Y87.843 E.00883
G1 X133.24 Y88.192 E.01094
G1 X133.118 Y89.136 E.02986
G1 X132.895 Y90.062 E.02986
G1 X132.574 Y90.958 E.02986
G1 X132.158 Y91.815 E.02986
G1 X131.652 Y92.622 E.02986
G1 X131.062 Y93.369 E.02986
G1 X130.395 Y94.049 E.02986
G1 X129.659 Y94.653 E.02986
G1 X128.861 Y95.173 E.02986
G1 X128.013 Y95.605 E.02986
G1 X127.122 Y95.943 E.02986
G1 X126.201 Y96.184 E.02986
G1 X124.68 Y96.409 E.0482
M204 S1000
;WIPE_START
G1 F8640
G1 X124.509 Y97.445 E-.24258
G1 X124.577 Y98.066 E-.14411
G1 X125.329 Y99.166 E-.30773
G1 X125.463 Y99.416 E-.06557
;WIPE_END
G1 E-.04 F2100
G1 Z.6 F720
G1 X98.387 Y101.024 F10800
G1 Z.2 F720
G1 E.8 F2100
M204 S800
G1 F1200
G1 X96.551 Y101.329 E.05837
G1 X93.44 Y101.537 E.09775
G1 X90.324 Y101.443 E.09775
G1 X87.232 Y101.046 E.09775
G1 X84.193 Y100.35 E.09775
G1 X81.236 Y99.362 E.09775
G1 X78.833 Y98.289 E.08251
G1 X78.122 Y99.736 E.05053
G1 X80.565 Y101.05 E.08696
G1 X81.782 Y101.552 E.04128
G1 X82.118 Y104.945 E.10689
G1 X82.551 Y107.067 E.0679
G1 X82.852 Y108.122 E.03439
G1 X83.036 Y108.652 E.0176
G1 X81.929 Y108.756 E.03487
G1 X80.468 Y108.741 E.04581
G1 X79.336 Y108.618 E.03571
G1 X78.783 Y108.6 E.01732
G1 X78.856 Y108.543 E.00289
G1 X79.091 Y108.28 E.01107
G1 X79.283 Y107.981 E.01112
G1 X79.416 Y107.668 E.01067
G1 X79.507 Y107.354 E.01027
G1 X79.56 Y107.034 E.01016
G1 X79.578 Y106.713 E.01008
G1 X79.56 Y106.392 E.01007
G1 X79.508 Y106.075 E.01007
G1 X79.422 Y105.766 E.01007
G1 X79.304 Y105.468 E.01007
G1 X79.153 Y105.184 E.01007
G1 X78.973 Y104.918 E.01007
G1 X78.765 Y104.673 E.01007
G1 X78.532 Y104.452 E.01007
G1 X78.276 Y104.258 E.01007
G1 X78.001 Y104.093 E.01007
G1 X77.708 Y103.957 E.01013
G1 X77.387 Y103.851 E.01059
G1 X77.092 Y103.786 E.00948
G1 X76.772 Y103.751 E.01007
G1 X76.451 Y103.751 E.01007
G1 X76.132 Y103.786 E.01007
G1 X75.817 Y103.856 E.01013
G1 X75.497 Y103.966 E.01059
G1 X75.223 Y104.093 E.00948
G1 X74.948 Y104.258 E.01007
G1 X74.692 Y104.452 E.01007
G1 X74.459 Y104.673 E.01007
G1 X74.251 Y104.918 E.01008
G1 X74.069 Y105.187 E.01015
G1 X73.919 Y105.477 E.01024
G1 X73.8 Y105.795 E.01065
G1 X73.732 Y106.141 E.01107
G1 X73.719 Y106.493 E.01105
G1 X73.737 Y106.62 E.004
G1 X73.362 Y106.283 E.01582
G1 X72.443 Y105.6 E.03588
G1 X71.359 Y104.618 E.04587
G1 X70.648 Y103.828 E.03333
G1 X70.834 Y103.253 E.01897
G1 X71.32 Y102.132 E.0383
G1 X71.918 Y101.074 E.03811
G1 X72.626 Y100.085 E.03811
G1 X73.434 Y99.177 E.03811
G1 X74.334 Y98.36 E.03811
G1 X75.316 Y97.643 E.03811
G1 X76.368 Y97.034 E.03811
G1 X77.478 Y96.54 E.03811
G1 X78.635 Y96.167 E.03811
G1 X79.825 Y95.918 E.03811
G1 X81.034 Y95.797 E.03812
G1 X81.725 Y95.801 E.02167
G1 X81.666 Y96.48 E.02137
G1 X81.652 Y97.563 E.03395
G1 X82.787 Y98.127 E.03973
G1 X84.738 Y98.851 E.06527
G1 X84.496 Y97.034 E.0575
G1 X84.479 Y96.548 E.01523
G1 X84.511 Y96.063 E.01523
G1 X84.591 Y95.584 E.01523
G1 X84.717 Y95.115 E.01523
G1 X84.889 Y94.661 E.01523
G1 X85.105 Y94.226 E.01523
G1 X85.224 Y94.036 E.00701
G1 X85.703 Y93.974 E.01514
G1 X85.95 Y93.978 E.00776
G1 X86.221 Y94.014 E.00856
G1 X86.047 Y94.576 E.01846
G1 X85.898 Y95.292 E.02294
G1 X85.818 Y96.019 E.02294
G1 X85.808 Y96.751 E.02294
G1 X85.867 Y97.48 E.02294
G1 X85.996 Y98.2 E.02294
G1 X86.364 Y99.514 E.04279
G1 X87.302 Y99.415 E.02957
G1 X87.506 Y99.437 E.00643
G1 X87.703 Y99.498 E.00647
G1 X88.347 Y99.86 E.02317
G1 X89.154 Y99.368 E.02962
G1 X89.003 Y97.253 E.06646
G1 X89.047 Y95.652 E.05022
G1 X89.247 Y94.063 E.05022
G1 X89.603 Y92.501 E.05022
G1 X90.031 Y91.215 E.04252
G1 X90.242 Y91.083 E.0078
G1 X90.684 Y90.869 E.0154
G1 X91.147 Y90.703 E.0154
G1 X91.624 Y90.586 E.0154
G1 X92.107 Y90.52 E.01528
G1 X92.601 Y90.505 E.01552
G1 X93.091 Y90.542 E.01539
G1 X93.574 Y90.63 E.0154
G1 X93.877 Y90.719 E.0099
G1 X93.516 Y91.941 E.03995
G1 X93.14 Y93.948 E.06403
G1 X92.971 Y95.983 E.06403
G1 X93.01 Y98.025 E.06403
G1 X93.364 Y100.934 E.09189
G1 X94.391 Y100.632 E.03358
G1 X94.737 Y100.602 E.01086
G1 X94.979 Y100.649 E.00774
G1 X95.206 Y100.747 E.00774
G1 X95.778 Y101.112 E.02128
G1 X96.645 Y100.48 E.03364
G1 X96.25 Y98.964 E.0491
G1 X96.09 Y97.985 E.03112
G1 X96.023 Y96.994 E.03112
G1 X96.049 Y96.002 E.03112
G1 X96.168 Y95.016 E.03112
G1 X96.253 Y94.622 E.01267
G1 X96.607 Y94.643 E.01109
G1 X97.067 Y94.713 E.01459
G1 X97.519 Y94.825 E.0146
G1 X97.83 Y94.934 E.01035
G1 X97.751 Y95.29 E.01144
G1 X97.63 Y96.34 E.03314
G1 X97.617 Y97.396 E.03314
G1 X97.713 Y98.449 E.03314
G1 X97.917 Y99.486 E.03313
G1 X98.369 Y100.967 E.04857
M204 S1000
;WIPE_START
G1 F8640
G1 X96.551 Y101.329 E-.42822
G1 X95.117 Y101.425 E-.33178
;WIPE_END
G1 E-.04 F2100
G1 Z.6 F720
G1 X95.712 Y110.474 F10800
G1 Z.2 F720
G1 E.8 F2100
M204 S800
G1 F1200
G1 X95.21 Y110.644 E.01659
G1 X94.745 Y110.744 E.01493
G1 X94.271 Y110.794 E.01493
G1 X93.795 Y110.794 E.01493
G1 X93.321 Y110.744 E.01493
G1 X92.856 Y110.644 E.01493
G1 X92.403 Y110.496 E.01493
G1 X91.969 Y110.3 E.01493
G1 X91.687 Y110.136 E.01021
G1 X90.995 Y109.042 E.04062
G1 X90.341 Y107.748 E.04546
G1 X89.814 Y106.397 E.04546
G1 X89.419 Y104.998 E.04559
G1 X89.274 Y104.257 E.02367
G1 X89.149 Y103.827 E.01404
G1 X89.07 Y103.646 E.00618
G1 X89.608 Y103.795 E.01752
G1 X90.125 Y103.901 E.01653
G1 X93.568 Y104.187 E.10833
G1 X93.713 Y105.702 E.0477
G1 X93.915 Y106.723 E.03262
